packages/katcn/src/icons/svg/lightning.svg

<svg width="24" height="25" viewBox="0 0 24 25" fill="none" xmlns="http://www.w3.org/2000/svg">
<path d="M8.4841 23.968C8.18273 23.968 7.88137 23.8675 7.58001 23.7671C6.77637 23.3654 6.37456 22.5621 6.57546 21.7587L7.78092 15.9344H5.97274C5.1691 15.9344 4.46592 15.4323 4.16456 14.7294C3.8632 14.0264 3.96365 13.2231 4.56638 12.721L14.1095 2.57861C14.7123 1.97609 15.7168 1.77526 16.42 2.17693C17.2236 2.57861 17.6254 3.38197 17.4245 4.18532L16.2191 10.0097H18.0273C18.8309 10.0097 19.5341 10.5117 19.8354 11.2147C20.1368 11.9176 20.0363 12.721 19.4336 13.2231L9.89046 23.3654C9.48864 23.7671 8.98637 23.968 8.4841 23.968ZM8.98637 13.8256C9.28773 13.8256 9.5891 13.926 9.79 14.2273C9.99091 14.5285 10.0914 14.7294 9.99091 15.0306L8.68501 21.8591L18.0273 11.9176H15.1141C14.8127 11.9176 14.5114 11.8172 14.3104 11.5159C14.1095 11.3151 14.0091 11.0138 14.1095 10.7126L15.4154 3.88406L6.07319 13.926L8.98637 13.8256Z" fill="black"/>
</svg>

<svg xmlns="http://www.w3.org/2000/svg" fill="none" viewBox="0 0 24 25"><path fill="#000" d="M8.484 23.968c-.301 0-.603-.1-.904-.2-.804-.403-1.205-1.206-1.005-2.01l1.206-5.824H5.973a1.98 1.98 0 0 1-1.808-1.205c-.302-.703-.201-1.506.401-2.008L14.11 2.579c.602-.603 1.607-.804 2.31-.402.804.402 1.205 1.205 1.004 2.008L16.22 10.01h1.808c.804 0 1.507.502 1.808 1.205s.201 1.506-.401 2.008L9.89 23.365a1.98 1.98 0 0 1-1.406.603m.502-10.142c.302 0 .603.1.804.401.2.301.301.502.2.804l-1.305 6.828 9.342-9.941h-2.913c-.301 0-.603-.1-.804-.402a.78.78 0 0 1-.2-.803l1.305-6.829-9.342 10.042z"/></svg>
